X: 95
T:Feitizos de García
M:3/4
L:1/8
Q:200
C:Trad
R:Jota
K:CMIN
C{F}C{G}C{F}C | A2 GF=EG |F2 F=EFG | F2 F2=E2| C2 CD=EF | G2 "~"F=E C2-
|
C2 D=EFG| A2 "~"G2 F2-
F2 C{F}C{G}C{F}C| A2 GF=EG | F2 F=EFG |F"F."cF2 =E2 | C"F."GC2 "F."GC/2"
F."G/2 | C2 Bc_dc | BAGF=EG 
|1 F6- | F2 :|2 F6 | F2 CCC2| C2 A4 |"~"G2 F=E F2-| F6- | F2 CC C2| C2 G
4
 | F2 GF =E2- |=E4 F2 | G2 CC C2| 
C2 A4 | "~"G2 F=E F2- | F6- | F2 CC C2| C2 G4| F2 GF =E2- | =EFG4| F2GF=
E2|
F2 A4 |"~"G2 F=EF2-| G6-|
F2 CC C2 | C2 G4| F2GF=E2- | =EF G4 | F2GF=E2 | F2 A4 |"~"G2 F=E F2- |F6
-|F2
||

